X: 17588
T: Hobson's
R: reel
M: 4/4
K: Eminor
d|:EE/E/ BE dEEe|dBAF DEFA|EE/E/ BE dEEe|dBAF B2E2:|
|:Eeef gefd|BdAF DEFD|Eeef gefd|BdFA B2E2:|

